X: 1
T: As Covas Do Rei Cintolo
R: polka
M: 2/4
L: 1/8
K: Gmaj
|:E/2F/2G/2F/2 EB|GE FB|A/2B/2A/2G/2 F E/2F/2|G E/2G/2 F2|
E/2F/2G/2F/2 EB|GE FB|A/2B/2A/2G/2 F E/2F/2|G/2E/2F/2D/2 E2:|
|:E/2F/2G/2A/2 BB/2B/2|Ad BG|E/2F/2G/2B/2 A3/2B/2|A/2B/2A/2G/2 F/2E/2D|
E/2F/2G/2A/2 BB/2B/2|Ad BG|E/2F/2G/2B/2 A3/2 F/2|G/2E/2F/2D/2 E2:|


Tune 2290	Setting 15657

